app/dist/common/images/guangxi-liugong-ma.svg

<svg height="18" viewBox="0 0 18 18" width="18" xmlns="http://www.w3.org/2000/svg"><path d="m0 0h18v18h-18z" fill="#f0f3fa"/><path d="m6.6 5h-1.6v5.75c0 1.24.98 2.25 2.19 2.25h5.81v-1.66h-5.57a.84.84 0 0 1 -.83-.85z" fill="#002d72"/><path d="m10.03 8.15a.09.09 0 0 1 .06-.15h2.7c.12 0 .21.1.21.21v2.7c0 .08-.1.12-.15.06z" fill="#ff671f"/><path d="m13 5v2h-4v2h1.65l1.63 1.74c.1.1.03.26-.11.26h-4.75a.4.4 0 0 1 -.42-.4v-4.62a1 1 0 0 1 1.01-.98z" fill="#002d72"/></svg>

<!-- by TradingView --><svg width="18" height="18" viewBox="0 0 18 18" xmlns="http://www.w3.org/2000/svg"><path fill="#F0F3FA" d="M0 0h18v18H0z"/><path d="M6.6 5H5v5.75C5 11.99 5.98 13 7.19 13H13v-1.66H7.43a.84.84 0 0 1-.83-.85V5Z" fill="#002D72"/><path d="M10.03 8.15a.09.09 0 0 1 .06-.15h2.7c.12 0 .21.1.21.21v2.7c0 .08-.1.12-.15.06l-2.82-2.82Z" fill="#FF671F"/><path d="M13 5v2H9v2h1.65l1.63 1.74c.1.1.03.26-.11.26H7.42a.4.4 0 0 1-.42-.4V5.98A1 1 0 0 1 8.01 5H13Z" fill="#002D72"/></svg>
